X:22
T:If There Weren't Any Men In The World
T:Hills of Tara, The
R:barndance
Z:id:hn-barndance-22
M:C|
L:1/8
K:G
Bc | d2G2 GBAB | c2E2 E2AG | FGAB cBcd | e2d2 B2Bc |
d2G2 GBAB | c2E2 E2AG | FGAB cADF | A2GF G2 :|
|: (3Bcd | g2g2 f2fd | efec A2AG | FGAB cBcd | e2d2 B2 (3Bcd |
g2g2 f2fd | efec A2AG | FGAB cADF | A2GF G2 :|


